img/wave-l.svg

<svg fill="none" height="8" viewBox="0 0 22 8" width="22" xmlns="http://www.w3.org/2000/svg" xmlns:xlink="http://www.w3.org/1999/xlink"><clipPath id="a"><path d="m0 0h22v8h-22z"/></clipPath><mask id="b" height="8" maskUnits="userSpaceOnUse" width="22" x="0" y="0"><path d="m22 0h-22v8h22z" fill="#fff"/></mask><g clip-path="url(#a)"><g mask="url(#b)"><path d="m-6.36719 3.54286c1.50527 1.14285 3.12632 3.65714 6.36842352 3.65714 3.24210648 0 4.86315648-1.37143 6.36841648-2.51429 1.27369-1.14285 2.43158-2.05714 4.86315-2.05714 2.4316 0 3.4737.91429 4.8632 2.05714 1.5052 1.14286 3.1263 2.51429 6.3684 2.51429s4.8631-2.51429 6.3684-3.65714l-1.621-1.02857c-1.2737 1.14285-2.4316 2.05714-4.8632 2.05714s-3.4737-.91429-4.8632-2.05714c-1.3894-1.14286-3.1263-2.51429-6.2526-2.51429-3.24209 0-4.86315 1.37143-6.36841 2.51429-1.38947 1.14285-2.43158 2.05714-4.86315648 2.05714-2.43158352 0-3.47368352-.91429-4.86315352-2.05714z" fill="#2f221b"/></g></g></svg>

<svg width="22" height="8" viewBox="0 0 22 8" fill="none" xmlns="http://www.w3.org/2000/svg">
<g clip-path="url(#clip0_255_715)">
<mask id="mask0_255_715" style="mask-type:luminance" maskUnits="userSpaceOnUse" x="0" y="0" width="22" height="8">
<path d="M22 0H0V8H22V0Z" fill="white"/>
</mask>
<g mask="url(#mask0_255_715)">
<path d="M-6.36719 3.54286C-4.86192 4.68571 -3.24087 7.2 0.00123352 7.2C3.24334 7.2 4.86439 5.82857 6.36965 4.68571C7.64334 3.54286 8.80123 2.62857 11.2328 2.62857C13.6644 2.62857 14.7065 3.54286 16.096 4.68571C17.6012 5.82857 19.2223 7.2 22.4644 7.2C25.7065 7.2 27.3275 4.68571 28.8328 3.54286L27.2118 2.51429C25.9381 3.65714 24.7802 4.57143 22.3486 4.57143C19.917 4.57143 18.8749 3.65714 17.4854 2.51429C16.096 1.37143 14.3591 0 11.2328 0C7.99071 0 6.36965 1.37143 4.86439 2.51429C3.47492 3.65714 2.43281 4.57143 0.00123352 4.57143C-2.43035 4.57143 -3.47245 3.65714 -4.86192 2.51429L-6.36719 3.54286Z" fill="#2F221B"/>
</g>
</g>
<defs>
<clipPath id="clip0_255_715">
<rect width="22" height="8" fill="white"/>
</clipPath>
</defs>
</svg>
